Img/Icones-redes/discord.svg

<svg width="12" height="13" viewBox="0 0 12 13" fill="none" xmlns="http://www.w3.org/2000/svg">
<path d="M3.12678 8.61549C5.36154 9.48762 7.26333 9.6575 9.41846 8.3C9.40266 8.32369 8.97636 8.95527 7.85529 9.27894C8.09213 9.60263 8.41583 9.97367 8.41583 9.97367C9.13426 9.97367 9.83689 9.76841 10.4448 9.37367C10.9185 9.05787 11.1869 8.51314 11.1316 7.94473C11.0369 6.97367 10.8079 6.0263 10.4527 5.11843C10.0027 3.93423 8.92109 3.11316 7.66583 2.99473C7.55529 2.98684 7.47636 2.98684 7.42899 2.98684L7.30268 3.11314C8.74742 3.52367 9.46585 4.16314 9.48162 4.18684C7.26319 3.06577 4.64215 3.05 2.40793 4.13947C2.40793 4.13947 3.11846 3.43684 4.6895 3.06577L4.59476 2.97104C4.42897 2.97104 4.27107 2.98684 4.10529 3.01051C2.94476 3.20787 1.97372 4.00524 1.55529 5.10261C1.19213 6.04998 0.955294 7.04471 0.868458 8.05524C0.821091 8.59208 1.07372 9.12104 1.51582 9.42894C2.10003 9.81577 2.79476 10.021 3.4974 10.021C3.4974 10.021 3.7816 9.64998 4.06583 9.31841C3.00003 9.00261 2.56582 8.37104 2.55793 8.34734L2.7585 8.44977C2.87841 8.51103 3.00134 8.56653 3.12678 8.61549ZM4.36583 7.92894C3.85266 7.91314 3.45003 7.47894 3.46582 6.95788C3.48162 6.46841 3.87636 6.07367 4.36583 6.05787C4.87899 6.07367 5.28162 6.50787 5.26583 7.02894C5.24213 7.51843 4.85529 7.91316 4.36583 7.92894ZM7.58686 7.92894C7.0737 7.91314 6.67107 7.47894 6.68686 6.95788C6.70266 6.46841 7.0974 6.07367 7.58686 6.05787C8.10003 6.07367 8.50266 6.50787 8.48686 7.02894C8.47109 7.51843 8.07633 7.91316 7.58686 7.92894Z" fill="#D4D4D4"/>
</svg>

<svg width="20" height="20" fill="none" xmlns="http://www.w3.org/2000/svg"><path d="M3.127 8.615c2.235.873 4.136 1.043 6.291-.315-.015.024-.442.655-1.563.979.237.324.56.695.56.695.72 0 1.422-.206 2.03-.6a1.54 1.54 0 0 0 .687-1.43 10.557 10.557 0 0 0-.68-2.826 3.314 3.314 0 0 0-2.786-2.123c-.11-.008-.19-.008-.237-.008l-.126.126c1.444.41 2.163 1.05 2.179 1.074a7.96 7.96 0 0 0-7.074-.048s.71-.702 2.281-1.073l-.094-.095c-.166 0-.324.016-.49.04a3.328 3.328 0 0 0-2.55 2.092 10.86 10.86 0 0 0-.687 2.952 1.524 1.524 0 0 0 .648 1.374 3.6 3.6 0 0 0 1.981.592s.285-.371.569-.703c-1.066-.315-1.5-.947-1.508-.97l.2.102c.12.061.243.117.369.165Zm1.239-.686a.936.936 0 0 1 0-1.871.936.936 0 0 1 0 1.87Zm3.22 0a.936.936 0 0 1 0-1.871.936.936 0 0 1 0 1.87Z" fill="#D4D4D4"/></svg>
